X:1
T:Massasoit -- Hornpipe
Z:Bob Puckette <bpuckette:msn.com> 2003-3-10
R:hornpipe
B:Cole's 1000 Fiddle Tunes
M:2/4
L:1/16
K:D
uA2|AFAd fedB|AFAd dedB|AFAd fedf|afge fedB|
AFAd gedB|AFAd dedB|AFAd fedf|gABc d2:|
|:(ud"4"e)|fedf eAAd|fedf abab|fedf eAAA|fd"4"ec .d2(de)|
fedf eAAd|fedf abag|fedf eAAA|fdec d2:|
